X:1
T:F# minor Daniel Belknap, 1797
T:Samuel Stennett, 1787 88. 88. (L. M.)
T:Concord
T:Transcribed from The Village Compilation, 1806.
%%score [ 1 2 3 4 ]
L:1/8
M:4/4
K:A
V:1 treble nm="Treble" snm="Tr."
V:2 treble nm="Counter" snm="C."
V:3 treble-8 nm="Tenor" snm="T."
V:4 bass nm="Bass" snm="B."
V:1
 A4 | A4 A4 | A2 c2 c2 ^e2 | f8- | f4 c4 | c6 d2 | (c2 e4) d2 | c4 c4 | c8 |: z4 c4 | c2 c2 c2 c2 | %11
w: 1.~'Tis|fin- ished,|so the Sa- vior|cried,~|_ and|meek- ly|bowed * his|head and|died.|'Tis|fin- ished: yes, the|
w: 2.~'Tis|fin- ished;|all that heav'n de-|creed,~|_ and|all the|an- * cient|pro- phets|said|Is|now ful- filled, as|
 B2 A2 e2 d2 | c3 B c2 f2 | e2 d2 c4- | c4 e4 | c2 c2 c2 c2 | c>d cB c2 AB | c2 f2 e2 d2 | c4 c4 | %19
w: race is run, The|bat- tle fought, the|vic- tory won.~|_ 'Tis|fin- ished; yes, the|race * is * run, The *|bat- tle fought, the|vic- tory|
w: was de- signed, In|me the Sa- vior|of man- kind.~|_ Is|now ful- filled, as|was * de- * signed, In *|me the Sa- vior|of man-|
 c8 :| %20
w: won.|
w: kind.|
V:2
 F4 | F4 F4 | A2 A2 E>F G2 | A8- | A4 F4 | G6 A2 | A6 G2 | F4 ^E4 | F8 |: z4 F4 | A2 A2 A2 A2 | %11
w: 3.~'Tis|fin- ished;|Aa- ron now * no|more~|_ Must|stain is|robes with|pur- ple|gore:|The|sa- cred veil is|
w: 4.~'Tis|fin- ished;|this my dy- * ing|groan~|_ Shall|sins of|eve- ry|kind a-|tone:|Mil-|lions shall be re-|
 G2 A2 G2 A2 | A3 B A2 A2 | E2 EF G4- | G4 G4 | F2 F2 F2 G2 | F2 F2 E2 F2 | A2 A2 A2 A2 | %18
w: rent in twain, And|Jew- ish rites no|more re- * main.~|_ The|sa- cred veil is|rent in twain, And|Jew- ish rites no|
w: deemed from death, By|this my last ex-|pi- ring * breath.~|_ Mil-|lions shall be re-|deemed from death, By|this my last ex-|
 (G3 F ^E2) E2 | F8 :| %20
w: more * * re-|main.|
w: pi- * * ring|breath.|
V:3
 F4 | c4 c4 | f2 c2 A2 B2 | c8- | c4 c4 | e6 f2 | (e2 c4) B2 | A4 G4 | F8 |: z4 c4 | f2 f2 f2 c2 | %11
w: 5.~'Tis|fin- ished;|heav'n is re- con-|ciled,~|_ And|all the|powers * of|dark- ness|spoiled:|Peace,|love, and hap- pi-|
w: 6.~'Tis|fin- ished:|let the joy- ful|sound~|_ Be|heard through|all * the|na- tions|round:|'Tis|fin- ished: let the|
 e2 c2 B2 f2 | e3 f e2 d2 | c2 B2 c4- | c4 c4 | A2 A2 A2 G2 | A>B cd e2 c2 | f2 f2 c2 f2 | %18
w: ness a- gain Re-|turn and dwell with|sin- ful men.~|_ Peace,|love, and hap- pi-|ness * a- * gain Re-|turn and dwell with|
w: e- cho fly Through|heav'n and hell, through|earth and sky.~|_ "Tis|fin- ished: let the|e- * cho * fly Through|heav'n and hell, through|
 (e>dcB A2) G2 | F8 :| %20
w: sin- * * * * ful|men.|
w: earth * * * * and|sky.|
V:4
 F,4 | F,4 F,4 | F,2 F,2 A,2 G,2 | F,8- | F,4 F,4 | C,6 F,2 | A,6 B,2 | C4 C,4 | F,8 |: z4 F,4 | %10
 F,2 F,2 F,2 A,2 | E,2 E,2 E,2 F,2 | A,3 G, A,2 F,2 | A,2 G,F, C,4- | C,4 C,4 | F,2 F,2 F,2 ^E,2 | %16
 F,2 F,2 C,2 F,2 | F,2 F,G, A,2 B,2 | C4 C,4 | F,8 :| %20

